public/static/images/icon-camera.svg

<svg height="15" viewBox="0 0 19 15" width="19" xmlns="http://www.w3.org/2000/svg"><path d="m186.556152 433.464844c.761719 0 1.33545-.189209 1.721192-.567627s.578613-.946045.578613-1.702881v-7.668457c0-.751953-.192871-1.317139-.578613-1.695557s-.959473-.567627-1.721192-.567627h-2.094726c-.195313 0-.351563-.014648-.46875-.043945-.117188-.029297-.220947-.079346-.31128-.150146-.090332-.070801-.19165-.167237-.303955-.289307l-.585937-.65918c-.180664-.200195-.380859-.354004-.600586-.461426-.219727-.107421-.517578-.161132-.893555-.161132h-2.922363c-.375977 0-.672607.053711-.889893.161132-.217285.107422-.418701.261231-.604248.461426l-.585937.65918c-.161133.180664-.310059.306396-.446777.377197-.136719.070801-.349122.106201-.637207.106201h-2.043458c-.766601 0-1.341552.189209-1.724853.567627s-.574951.943604-.574951 1.695557v7.668457c0 .756836.19165 1.324463.574951 1.702881s.958252.567627 1.724853.567627zm-6.694336-2.160645c-.55664 0-1.07666-.102539-1.560058-.307617-.483399-.205078-.906983-.490723-1.270752-.856934-.36377-.36621-.649414-.791015-.856934-1.274414-.207519-.483398-.311279-1.005859-.311279-1.567382 0-.556641.10376-1.076661.311279-1.560059.20752-.483398.493164-.908203.856934-1.274414.363769-.366211.787353-.651856 1.270752-.856934.483398-.205078 1.003418-.307617 1.560058-.307617.737305 0 1.408692.178223 2.014161.534668.605468.356445 1.086425.837402 1.442871 1.442871.356445.605469.534668 1.279297.534668 2.021485 0 .561523-.102539 1.083984-.307618 1.567382-.205078.483399-.490722.908204-.856933 1.274414-.366211.366211-.791016.651856-1.274414.856934-.483399.205078-1.000977.307617-1.552735.307617zm5.434571-5.76416c-.258789.004883-.482178-.084228-.670166-.267334-.187989-.183105-.281983-.406494-.281983-.670166 0-.249023.093994-.467529.281983-.655518.187988-.187988.411377-.281982.670166-.281982.249023 0 .467529.093994.655517.281982.187989.187989.281983.406495.281983.655518 0 .263672-.093994.48584-.281983.666504-.187988.180664-.406494.270996-.655517.270996zm-5.434571 4.650879c.532227 0 1.016846-.129395 1.453858-.388184s.784912-.606689 1.043701-1.043701.388184-.924072.388184-1.461181c0-.532227-.129395-1.016846-.388184-1.453858s-.606689-.786133-1.043701-1.047363c-.437012-.261231-.921631-.391846-1.453858-.391846-.532226 0-1.016845.130615-1.453857.391846-.437012.26123-.786133.610351-1.047363 1.047363-.261231.437012-.391846.921631-.391846 1.453858 0 .537109.130615 1.024169.391846 1.461181.26123.437012.610351.784912 1.047363 1.043701s.921631.388184 1.453857.388184z" fill="#185037" transform="translate(-170 -419)"/></svg>

<?xml version="1.0" encoding="UTF-8"?>
<svg width="19px" height="15px" viewBox="0 0 19 15" version="1.1" xmlns="http://www.w3.org/2000/svg" xmlns:xlink="http://www.w3.org/1999/xlink">
    <g id="Page-1" stroke="none" stroke-width="1" fill="none" fill-rule="evenodd">
        <g id="iPhone-8" transform="translate(-170.000000, -419.000000)" fill="#185037" fill-rule="nonzero">
            <path d="M186.556152,433.464844 C187.317871,433.464844 187.891602,433.275635 188.277344,432.897217 C188.663086,432.518799 188.855957,431.951172 188.855957,431.194336 L188.855957,423.525879 C188.855957,422.773926 188.663086,422.20874 188.277344,421.830322 C187.891602,421.451904 187.317871,421.262695 186.556152,421.262695 L184.461426,421.262695 C184.266113,421.262695 184.109863,421.248047 183.992676,421.21875 C183.875488,421.189453 183.771729,421.139404 183.681396,421.068604 C183.591064,420.997803 183.489746,420.901367 183.377441,420.779297 L182.791504,420.120117 C182.61084,419.919922 182.410645,419.766113 182.190918,419.658691 C181.971191,419.55127 181.67334,419.497559 181.297363,419.497559 L178.375,419.497559 C177.999023,419.497559 177.702393,419.55127 177.485107,419.658691 C177.267822,419.766113 177.066406,419.919922 176.880859,420.120117 L176.294922,420.779297 C176.133789,420.959961 175.984863,421.085693 175.848145,421.156494 C175.711426,421.227295 175.499023,421.262695 175.210938,421.262695 L173.16748,421.262695 C172.400879,421.262695 171.825928,421.451904 171.442627,421.830322 C171.059326,422.20874 170.867676,422.773926 170.867676,423.525879 L170.867676,431.194336 C170.867676,431.951172 171.059326,432.518799 171.442627,432.897217 C171.825928,433.275635 172.400879,433.464844 173.16748,433.464844 L186.556152,433.464844 Z M179.861816,431.304199 C179.305176,431.304199 178.785156,431.20166 178.301758,430.996582 C177.818359,430.791504 177.394775,430.505859 177.031006,430.139648 C176.667236,429.773438 176.381592,429.348633 176.174072,428.865234 C175.966553,428.381836 175.862793,427.859375 175.862793,427.297852 C175.862793,426.741211 175.966553,426.221191 176.174072,425.737793 C176.381592,425.254395 176.667236,424.82959 177.031006,424.463379 C177.394775,424.097168 177.818359,423.811523 178.301758,423.606445 C178.785156,423.401367 179.305176,423.298828 179.861816,423.298828 C180.599121,423.298828 181.270508,423.477051 181.875977,423.833496 C182.481445,424.189941 182.962402,424.670898 183.318848,425.276367 C183.675293,425.881836 183.853516,426.555664 183.853516,427.297852 C183.853516,427.859375 183.750977,428.381836 183.545898,428.865234 C183.34082,429.348633 183.055176,429.773438 182.688965,430.139648 C182.322754,430.505859 181.897949,430.791504 181.414551,430.996582 C180.931152,431.20166 180.413574,431.304199 179.861816,431.304199 Z M185.296387,425.540039 C185.037598,425.544922 184.814209,425.455811 184.626221,425.272705 C184.438232,425.0896 184.344238,424.866211 184.344238,424.602539 C184.344238,424.353516 184.438232,424.13501 184.626221,423.947021 C184.814209,423.759033 185.037598,423.665039 185.296387,423.665039 C185.54541,423.665039 185.763916,423.759033 185.951904,423.947021 C186.139893,424.13501 186.233887,424.353516 186.233887,424.602539 C186.233887,424.866211 186.139893,425.088379 185.951904,425.269043 C185.763916,425.449707 185.54541,425.540039 185.296387,425.540039 Z M179.861816,430.190918 C180.394043,430.190918 180.878662,430.061523 181.315674,429.802734 C181.752686,429.543945 182.100586,429.196045 182.359375,428.759033 C182.618164,428.322021 182.747559,427.834961 182.747559,427.297852 C182.747559,426.765625 182.618164,426.281006 182.359375,425.843994 C182.100586,425.406982 181.752686,425.057861 181.315674,424.796631 C180.878662,424.5354 180.394043,424.404785 179.861816,424.404785 C179.32959,424.404785 178.844971,424.5354 178.407959,424.796631 C177.970947,425.057861 177.621826,425.406982 177.360596,425.843994 C177.099365,426.281006 176.96875,426.765625 176.96875,427.297852 C176.96875,427.834961 177.099365,428.322021 177.360596,428.759033 C177.621826,429.196045 177.970947,429.543945 178.407959,429.802734 C178.844971,430.061523 179.32959,430.190918 179.861816,430.190918 Z" id="􀌟"></path>
        </g>
    </g>
</svg>
